img/svg/hoder/advarsel--fylt.svg

<?xml version="1.0" encoding="UTF-8"?>
<svg width="30px" height="30px" viewBox="0 0 30 30" version="1.1" xmlns="http://www.w3.org/2000/svg" xmlns:xlink="http://www.w3.org/1999/xlink">
    <!-- Generator: Sketch 42 (36781) - http://www.bohemiancoding.com/sketch -->
    <title>report problem circle</title>
    <desc>Created with Sketch.</desc>
    <defs></defs>
    <g id="Oversiktsside-søknader" stroke="none" stroke-width="1" fill="none" fill-rule="evenodd">
        <g id="Ikke-brukt-på-nett" transform="translate(-208.000000, -377.000000)" fill-rule="nonzero" fill="#FF9100">
            <g id="report-problem-circle" transform="translate(208.000000, 377.000000)">
                <g id="Filled_Version">
                    <path d="M15.2556522,0.253448276 L14.9882609,0.256034483 C10.9708696,0.325862069 7.18956522,1.93577586 4.34217391,4.78965517 C1.47391304,7.66422414 -0.0665217391,11.4271552 0.00260869565,15.3866379 C0.146086957,23.5810345 6.62217391,30 14.7456522,30 L15.0104348,29.9974138 C23.4182609,29.8538793 30.1421739,23.0650862 29.9973913,14.8681034 C29.853913,6.6737069 23.3778261,0.253448276 15.2556522,0.253448276 Z M14.3478261,8.01206897 C14.3478261,7.65517241 14.64,7.36551724 15,7.36551724 C15.3586957,7.36551724 15.6521739,7.65517241 15.6521739,8.01206897 L15.6521739,17.0637931 C15.6521739,17.4206897 15.3586957,17.7103448 15,17.7103448 C14.64,17.7103448 14.3478261,17.4206897 14.3478261,17.0637931 L14.3478261,8.01206897 Z M15.0234783,22.8827586 L15,22.8827586 C14.2891304,22.8827586 13.7073913,22.3189655 13.6956522,21.612931 C13.6826087,20.8991379 14.2565217,20.3094828 14.9765217,20.2978448 C14.9843478,20.2978448 14.9921739,20.2965517 15,20.2965517 C15.7108696,20.2965517 16.2913043,20.8616379 16.3043478,21.5676724 C16.3173913,22.2814655 15.7421739,22.8698276 15.0234783,22.8827586 Z" id="Shape"></path>
                </g>
            </g>
        </g>
    </g>
</svg>

<svg width="30" height="30" viewBox="0 0 30 30" xmlns="http://www.w3.org/2000/svg"><path d="M15.256.253l-.268.003A15.345 15.345 0 0 0 4.342 4.79C1.474 7.664-.067 11.427.002 15.387.147 23.58 6.623 30 14.747 30l.264-.003c8.408-.143 15.132-6.932 14.987-15.129C29.854 6.674 23.377.253 15.256.253zm-.908 7.76A.65.65 0 0 1 15 7.365a.65.65 0 0 1 .652.646v9.052a.65.65 0 0 1-.652.646.65.65 0 0 1-.652-.646V8.012zm.675 14.87H15c-.71 0-1.293-.564-1.304-1.27a1.297 1.297 0 0 1 1.28-1.315l.024-.001a1.3 1.3 0 0 1 1.304 1.27 1.299 1.299 0 0 1-1.28 1.316z" fill-rule="nonzero" fill="#FF9100"/></svg>
